X: 1
T: Kiss On The Green, The
M: 4/4
L: 1/8
R: reel
K: Dmaj
fe|:d2 de dBAB|fdef g2 fe|d2 de dBAF|GBAG EABc|
d2 de dBAB|fdef g2 fg|abaf gfed|1cABc d2 fe:|2cABc d2 cd||
|:eA (3AAA eAfA|eA (3AAA efgf|eA (3AAA efge|fedf e2 cd|
eA (3AAA eAfA|eA (3AAA defg|a2 af gfed|1cABc d2 cd:|2cABc d2 fe||
